X:1
T:Trio Sonata Op.2 No.5 in B-Dur from " 12 Triosonatas Op.2 "
T:Trio Sonata No.5 in B-Dur
T:from " 12 Triosonatas Op.2 " Transcribed for 2 Recorders and B/C from IMSLP#372337 PDF File 
T:Arcangelo Corelli (1653 — 1713) Alfred Moffat (1866-1950)
T:Public Domain - Non-PD EU
T:Public Domain - Non-PD EU
T:Public Domain - Non-PD EU
T:Public Domain - Non-PD EU
C:Arcangelo Corelli (1653 — 1713)
Z:Public Domain - Non-PD EU
%%score [ 1 2 3 ] { ( 4 5 7 8 ) | ( 6 9 ) }
L:1/8
Q:1/4=60
M:4/4
K:Bb
V:1 treble nm="Alto Recorder" snm="A. Rec."
V:2 treble nm="Tenor Recorder" snm="T. Rec."
V:3 bass nm="Viola da gamba" snm="Vla. d. g."
V:4 treble nm="Harpsichord" snm="Hch."
V:5 treble 
V:7 treble 
V:8 treble 
V:6 bass 
V:9 bass 
V:1
"^Adagio.""^1. Preludio"!p! (B2 c>d) (e2 d2) | g2 f2 (ef/g/) (f>e) | (d2 c>d) (e2 d2) | c2 B4 A2 | %4
 d2 d4 c2 | (B2 b2) a4 | g4 f4 | e4 d4 | c4 B4 | A4 B2 g2- | g2 f4 e2- | e2!<(! d4 c2- | %12
 cF B2 B2 B2!<)! | B2 z!ff! !tenuto!d !tenuto!G!tenuto!A !tenuto!B2 | B3 A !fermata!B4 |] %15
[M:4/4]"^2. Allemanda"[Q:1/4=120]"^Allegro."!f! f4 B3 z/ B/ | c>de>f d>B b2- | b2 a2 b>dc>B | %18
 e4 d2 g>d | =e3 z/ c'/ b>d'c'>b | a3 z/ f/ e>gf>e | d3 z/ d/ c>dB>c | A>FB>B B3 A | %23
 B3 z/!mf! c/ c3 z/ d/ |!p! d3 z/ =e/ e3 z/ f/ |!f! f3 z/!p! c/ d>cB>A | G>cB>A TG4 | F2 B4 c2- | %28
 c2"_cresc." d4 e2 | e2 f>e d2 f2- | f2 e>d c2 f2- |!f! f2 e>d c2 d>e | (B3 A) B4 :: z8 | %34
 f4 b3 z/ b/ | a>gf>e d2 B>d' | c'>d'b>c' a2 b2 | a4 g>g f>e | d2"_dim." f2- f>dc>B | %39
!p! AB c4 B2- | B2 A2 G4 | F2 B4 A2 | d6 c2- | c2"_cresc." f2 G3 G | A>FB>B (B3 A) |!f! B8 | B8- | %47
 B4 c2 d>e | Td4 !fermata!B4 :| z/8 |[M:3/4][Q:1/4=60]"^Adagio.""^3. Sarabanda"!p! d2 (f2 F2) | %51
 (B3 c) d2 | g2 (a2 b2) | c4 B2 | d2"_cresc." g4 | c2 f4 | (B3 c)"_dim." A2 |!p! (G4 F2) :: %58
!mf! c2"_cresc." (f3 e) | (d3 g) a2 | b2 (^f3!>(! b) | a4!>)! g2 |!f! g2 (f3 e) | (d3 F) G2 | %64
"_dim." B2 (e3 d) |!p! (c4 B2) :| z/8 | %67
[M:2/2][Q:1/2=80]"^4. Tempo di Gavotta"!f! !wedge!d2 !wedge!c2 !wedge!d2 f2- | f2 e4 d2- | %69
 d2 !wedge!c>!wedge!B (A>!wedge!b)(B>!wedge!c) | (Tc3 B) B4 | !wedge!d2 !wedge!g2 !wedge!=e2 f2- | %72
 f2 b4 a2- | a2 !wedge!g>!wedge!f =e>!wedge!c'f>!wedge!g | (g3 f) f4 |!p! .f2 .d2 .e2 .g2 | %76
 z2 .g2 z2 d2- |!f! d2 !wedge!c>!wedge!B (A>!wedge!b)(B>!wedge!c) | (Tc3 B) B4 | %79
!p! .f2 .d2 .e2 .g2 | z2 .g2 z2 d2- |!f! d2 !wedge!c>!wedge!B (A>!wedge!b)(B>!wedge!c) | %82
 (c3 B) B4 ::!p! .f2 .f2"_cresc." .f2 z2 | .g2 .g2 .g2 z!f! !wedge!g | %85
 !wedge!_a!wedge!g!wedge!f!wedge!e !wedge!d!wedge!g!wedge!f!wedge!e | !wedge!e2 !wedge!d2 c3!p! c | %87
 (3fgf fe d3 f | .b.b.b._a g3 .f | e>fd>e c2 (3BcB | (3ABA"_cresc." (3ded (3cdc (3BcB | %91
 (3ABA (3ded c2 z!f! !wedge!b | !wedge!g!wedge!f!wedge!e!wedge!d !wedge!c!wedge!f!wedge!e!wedge!d | %93
 (c3 B) B3!p! b | .g.f.e.d .c.f.e.d | (c3 B) !fermata!B4 :| %96
V:2
!p! (d2 f2) (B2 A>B) | (c3 B) B2 A2 | (B2 f2) B2 A2 | G2 (Fd) c2 (c2- | c2 B2) A2 a2- | a2 g4 f2- | %6
 f2 e4 d2- | d2 c4 B2- | B2 A4 G2- | G2 ^F2 G2 z2 | a4 g4 | f4!<(! e4 | d3 f c2 c2 | %13
 c2!<)! z!ff! !tenuto!f !tenuto!e2 !tenuto!d2 | c4 !fermata!d4 |][M:4/4] z8 |!f! f4 B3 z/ B/ | %17
 c>de>f d>B b2- | b2 a2 b2 d>B | c2 f4 =e2 | f3 z/ A/ B2 c2 | F3 z/ f/ e>fd>e | c>Ad>e Tc3 B | %23
 B3 z/!mf! F/ F3 z/ F/ |!p! F3 z/ B/ B3 z/ A/ |!f! A3 z/!p! c/ B>AG>F | =EC F2 F3 E | F2 z2 G4 | %28
 A4"_cresc." B4 | c4 F2 d2- | d2 c>B A2 d2- |!f! d2 c>B A>FB>B | (Tc3 B) B4 :: z8 | z8 | %35
 f4 b3 z/ b/ | a>bg>a f>dg>g | g3 ^f g>ba>g | f2"_dim." d2- d>fe>d |!p! c2 z2 F4 | =E2 F4 E2 | %41
 F2 z2 c4- | c2 B2 e4 | d6"_cresc." c2- | c2 d>e Tc4 |!f! B4 z4 | B8- | B4 A2 B2 | %48
 B2 A2 !fermata!B4 :| z/8 |[M:3/4]!p! B4 c2 | (d3 e) f2 | B2 (c2 d2) | A4 B2 | %54
 (f2"_cresc." d2) B2 | F4 A2 | (D3 =E)"_dim." F2 |!p! (=E4 F2) ::!mf! A2"_cresc." (c2 A2) | %59
 (F3 d) d2 | d2 (c3!>(! g) | ^f4!>)! g2 |!f! (B2 c2) A2 | (F3 f) B2 |"_dim." F2 (G3 B) | %65
!p! (A4 B2) :| z/8 |[M:2/2]!f! !wedge!f2 !wedge!f2 !wedge!f2 !wedge!A2 | B4 A4 | %69
 G4 !wedge!F2 !wedge!B2 | (B3 A) B4 | !wedge!f2 !wedge!d2 !wedge!B2 z2 | %72
 !wedge!B2 z2 !wedge!c2 z2 | !wedge!d2 z2 !wedge!c2 !wedge!f2 | (f3 =e) f4 |!p! .A2 z2 .B2 z2 | %76
 .c2 z2 .F2 z2 |!f! G4 !wedge!F2 !wedge!B2 | (B3 A) B4 |!p! .A2 z2 .B2 z2 | .c2 z2 .F2 z2 | %81
!f! G4 !wedge!F2 !wedge!B2 | (B3 A) B4 ::!p! .d2 .c2"_cresc." .d2 z2 | .e2 .d2 .e2 z!f! !wedge!c | %85
 c3 !wedge!c !wedge!=B2 !wedge!c2 | c3 .=B .c2 z2 |!p! .c2 .c2 .F2 z2 | .d2 .d2 B3 .F | %89
 G>AB>c A2 (3ded | (3cdc"_cresc." (3BcB (3ABA (3ded | (3cdc (3BcB A2 z!f! !wedge!f | %92
 !wedge!e!wedge!d!wedge!c!wedge!B !wedge!A2 !wedge!B2 | (B3 A) B3!p! f | .e.d.c.B .A2 .B2 | %95
 (B3 A) !fermata!B4 :| %96
V:3
!p! (B,2 A,2) (G,2 F,2) | (E,2 D,2) C,2 F,2 | (B,2 A,2) (G,2 F,2) | (E,2 D,2) (E,2 F,2) | %4
 B,,2 F,2 ^F,2 D,2 | (G,A,B,C) D2 D,2 | E,F,G,A, B,2 B,,2 | G,,2 A,,2 B,,2 D,2 | %8
 =E,2 ^F,2 G,2 B,,2 | C,2 D,2 G,,A,,B,,C, | D,=E,F,D, _E,F,G,A, | B,2!<(! B,,2 G,,2 A,,2 | %12
 B,,2 D,2 E,2 F,2!<)! | G,2!ff! !tenuto!D,2 !tenuto!E,2 !tenuto!B,,2 | F,4 !fermata!B,,4 |] %15
[M:4/4] z8 | z8 |!f! F,4 B,,3 z/ G,/ | C,>D,E,>F, B,,2 B,2- | B,2 A,2 G,2 C,2 | %20
 F,3 z/ F,/ G,2 A,2 | B,,3 z/ D,/ E,3 z/ E,/ | F,2 B,,2 F,4 | B,,3 z/!mf! A,,/ A,,3 z/ B,,/ | %24
!p! B,,3 z/ G,,/ ^G,,3 z/ F,,/ |!f! F,,3 z/!p! A,,/ B,,>C,D,>B,, | C,>CD>A, B,>G,C>C, | %27
 F,,2 z D, E,D,E,C, | F,E,"_cresc."F,D, G,F,G,G,, | A,,G,,A,,F,, B,,3 D, | E,F,G,E, F,E,D,B,, | %31
!f! E,F,G,E, F,E,D,B,, | E,C,F,F,, B,,4 :: F,4 B,3 z/ B,/ | A,>G,F,>E, D,2 B,,2 | F,4 G,2 B,,2 | %36
 C,4 D,2 G,,2 | D,4 G,2 A,2 | B,2"_dim." B,,2 E,4 |!p! F,2 A,2 D,2 G,2 | C,2 F,2 B,,2 C,2 | %41
 F,,2 D,2 E,2 F,2 | B,,2 B,2 G,2 A,2 | B,3"_cresc." D, E,F,G,E, | F,E,D,B,, E,C,F,F,, | %45
!f! B,,D,E,F, G,D,E,F, | G,D,E,F, G,D,E,F, | G,F,E,D, C,2 B,,2 | F,4 !fermata!B,,4 :| z/8 | %50
[M:3/4]!p! B,,4 A,,2 | G,,4 D,2 | E,4 B,,2 | F,4 B,,2 | B,4"_cresc." G,2 | A,4 F,2 | %56
 G,4"_dim." B,,2 |!p! (C,4 F,,2) ::!mf! F,2"_cresc." (A,2 F,2) | B,3- B, ^F,2 | G,2 D,2!>(! G,,2 | %61
 D,4!>)! G,,2 |!f! G,2 A,2 F,2 | (B,3 D,) E,2 |"_dim." D,2 C,2 B,,2 |!p! (F,4 B,,2) :| z/8 | %67
[M:2/2]!f! !wedge!B,2 !wedge!A,2 !wedge!B,2 !wedge!F,2 | %68
 !wedge!G,2 !wedge!C,2 !wedge!F,2 !wedge!B,,2 | E,6 (D,>!wedge!E,) | F,4 B,,4 | %71
 !wedge!B,,2 B,4 !wedge!A,2 | G,4 F,4 | B,,6 A,,>B,, | C,4 F,,4 |!p! .F,2 z2 .G,2 z2 | %76
 .A,2 z2 .B,,2 z2 |!f! E,6 (D,>!wedge!E,) | F,4 B,,4 |!p! .F,2 z2 .G,2 z2 | .A,2 z2 .B,2 z2 | %81
!f! E,6 (D,>E,) | F,4 B,,4 ::!p! .B,2 .A,2"_cresc." .B,2 z2 | .C2 .B,2 .C2 z!f! !wedge!E, | %85
 F,2 F,2 G,2 C,2 | G,3 .G,,!p! .C,.C,.C,.B,, | .A,,2 z .F, .B,.B,.B,._A, | %88
 .G,2 z .B,, .E,.E,.E,.D, | C,2 B,,2 F,2 B,,2 | F,2"_cresc." B,,2 F,2 B,,2 | %91
 F,2 B,,2 F,2 z!f! !wedge!D, | !wedge!E,3 !wedge!E, !wedge!F,2 !wedge!B,,2 | F,4 B,,3!p! D, | %94
 E,3 E, F,2 B,,2 | F,4 !fermata!B,,4 :| %96
V:4
 (d2 c2 [Ee]2 [Fd]2 | c3 B B2 A2) | [DB]2 [Fc]2 [Ee]2 [Fd]2 | [Gc]2 [FB]2 [GB]2 [EA]2 | %4
 ([Ac]2 B2 A2 d2) | (BcdG ABcd | GABc FGAB | EFGA DEFG | CD_ED DGBd) | A4 G4 | A4 GABc | %11
 (FGAB EFGA | DEFG CDED) | C2 z [B,FB] [B,EG]2 [DFB]2 | (B3 A) .!fermata![DFB]4 |][M:4/4] z8 | z8 | %17
 z8 | [Beg]2 [Acf]2 [Bd]2 [FBd]2 | [Gc=e]2 [Fc]2 [GB]4 | [Acf]3 z/ [Acf]/ [G_e]2 [Fcf]2 | %21
 [FBd]3 z/ [FB]/ [Gc]3 z/ [CGc]/ | [CFA]2 B4 A2 | z [DB] [Fd]2 z [Fc] [Af]2 | %24
 z [DB] [Fd]2 z [=EBc] !arpeggio![GB]>[Acf] | [Acf]2 z2 [FBd]2 z2 | [=Ec]2 [FA]2 G4 | %27
 (F2 B2) [_EG]2 [Gc]2 | [FA]2 [Ad]2 [GB]2 [Be]2 | [Ac]2 (f>e) [FBd]4 | %30
 [Fd]2 [Ec][DB] [CFA]2 [DFB][Bd] | [Fd]2 [Ec][DB] [CFA]2 [B,FB][FBd] | [Ec]4 [DB]4 :: z8 | %34
 c>BA>G F>GA>B | c>B A2 [DB]2 [FBd]2 | [Ac]2 [GB]2 A2 [DBd]2 | [DA]4 [DGB]2 [=Fc]2 | d>cB>A G4 | %39
 AG F2 f>=ed>c | c4 [Fd]2 [=Ec]2 | [FA]2 [FBf]2 c4- | c2 B2 [DB]2 [CA-]2 | A2 B2 GABG | %44
 [CFA]2 [B,FB][Fd] c4 | [DFB]2 z2 [DG] Bcd | [B,DB] FGA .[B,DB] Bcd | B4 [EAc]2 [FBd]2 | %48
 [Ec]4 !fermata![DB]4 :| z/8 |[M:3/4] (dcdBcA) | BAGFBd | (cBAfdB) | c4 B2 | (Bc d4) | (c4- cA) | %56
 (BcdcBA) | ([=EG][CE][DF][EG] [FA]2) :: (AGFAcf) | (BcdcBA) | GBAc!>(!cB | (AdcB)!>)! (AG) | %62
 (GABcde) | (dc B4) | (BABc) d2 | c4 [DFB]2 :| z/8 |[M:2/2] [Fd]2 [Fc]2 [Fd]2 [Af-]2 | %68
 f2 e4 [Bd]2 | (d2 c>B) (A2 B>c) | (c3 B) B4 | [FBd]4 [G=e]2 [Ff-]2 | f2 B2 [GB]2 [FA]2 | %73
 [Dd]4 [=Ec]2 (F>G) | [CG]4 [CFA]4 | [Af]2 z2 [B_e]2 z2 | z2 [Fcf]2 z2 d2- | (d2 c>B) (A>B B>c) | %78
 (c3 B) B4 | (fAFA) (BGBe) | z (Fcf) z (FBd-) | d2 c>B (A>B B>c) | (c3 B) B4 :: (DFCF) (DF B) z | %84
 (EGDG) (EG c) z | [CF_A]2 z2 G4 | G4 G2 z2 | (CFA) z (DFB) z | (B,G B) z ([EG]3 F) | %89
 (EcDB) [CFA]2 [DFB]2 | ([FA]C[DB]B, [Ac]F[Bd]F) | ([Ac]F[Bd]F) ([Ac]fF)[FBf] | %92
 ([Ge][Fd][Ec][DB]) A2 B2 | B2 A2 B3 B | B4 A2 B2 | [CFc]4!>)!!>(! !fermata![B,FBd]4 :| %96
V:5
 .F4 x4 | G2 F2 E4 | x8 | x4 c4 | D4- D2 ^F2 | G2 G4 =F2- | F2 E4 D2- | D2 C4 B,2 | %8
 B,2 A,2 B,2 D2 | E2 [D^F]2 BcdG | G2 =F4 E2 | E2 D4 C2- | C2 B,2 B,4- | B,2 x6 | [CF]4 x4 |] %15
[M:4/4] x8 | x8 | x8 | x8 | x2 f4 =e2 | x8 | x8 | x2 [DF]2 [CF]4 | x8 | x8 | x8 | x4 (F2 =E2) | %27
 F2 B,4 C2 | C2 .D4 E2 | x2 [Fc]2 x4 | G4 x4 | x8 | B2 A2 x4 :: x8 | F4 F4 | F2- F>F x4 | %36
 =E4 ^F2 x2 | G2 ^F2 x4 | F4 F2 E2 | F4 F4 | =E2 [FA]2 G4 | x4 [GB]2 x2 | D4 E4 | D6 C2 | %44
 x4 [GB]2 [FA]2 | x5 F3 | x B,3 x F3 | D2 EF x4 | B2 A2 x4 :| x/4 |[M:3/4] F4 x2 | D2 x2 F2 | %52
 G2 F4 | (AGFEDC) | (D3 GBA) | (GFED E2) | (D3 =E) F2 | x6 :: x6 | x6 | x6 | ^F4 FG | x2 =F2 A2 | %63
 (B3 AGF) | F2 E2 [DB]2 | E3 E x2 :| x/4 |[M:2/2] x8 | [FB]4 [FA]4 | G4 F2 F2 | B2 A2 x4 | x4 c4 | %72
 B4 x4 | (A2 G>F) x4 | (F2 =E2) x4 | x8 | x6 [FB]2 | G4 F2 F2 | B2 A2 x4 | x8 | x8 | G4 F2 F2 | %82
 B2 A2 x4 :: x8 | x8 | x4 (D2 [CE]2) | [CE]2 D2 [CE]2 x2 | x8 | x4 B,4 | x8 | x8 | x8 | %92
 x4 (CF[EG][DF]) | [CF]4 [DF]3 x | (GFED) (CF[EG][DF]) | (B2 A2) x4 :| %96
V:6
 [B,,B,]2 [A,,A,]2 [G,,G,]2 [F,,F,]2 | [E,,E,]2 [D,,D,]2 [C,,C,]2 [F,,F,]2 | %2
 [B,,B,]2 [A,,A,]2 [G,,G,]2 [F,,F,]2 | [E,,E,]2 [D,,D,]2 [E,,E,]2 [F,,F,]2 | B,,2 B,2 ^F,2 D,2 | %5
 G,A,B,C D2 D,2 | E,F,G,A, B,2 B,,2 | G,,2 A,,2 B,,2 D,2 | =E,2 ^F,2 G,2 B,,2 | %9
 C,2 D,2 G,,A,,B,,C, | D,=E,F,D, _E,F,G,A, | B,2 B,,2 G,,2 A,,2 | B,,2 D,2 E,2 F,2 | %13
 G,2 [D,,D,]2 [E,,E,]2 [B,,,B,,]2 | [F,,F,]4 !fermata![B,,,B,,]4 |][M:4/4] z8 | z8 | %17
 [F,,F,]4 [B,,,B,,]3 z/ [B,,,B,,]/ | [C,,C,]>[D,,D,][E,,E,]>[F,,F,] [B,,,B,,]2 [B,,B,]2- | %19
 [B,,B,]2 [A,,A,]2 [G,,G,]2 [C,,C,]2 | [F,,F,]3 z/ [F,,F,]/ [G,,G,]2 [A,,A,]2 | %21
 [B,,B,]3 z/ D,/ E,3 z/ [E,,E,]/ | [F,,F,]2 [B,,,B,,]2 [F,,F,]4 | %23
 [B,,,B,,]3 z/ [A,,A,]/ [A,,A,]3 z/ [B,,B,]/ | [B,,B,]3 z/ [G,,G,]/ [G,,G,]3 z/ .[F,,F,]/ | %25
 [F,,F,]3 A,, B,,>C,D,>B,, | C,>CD>A, B,>G,C>C, | F,2 z D, E,D,E,C, | F,E,F,D, G,F,G,G,, | %29
 A,,G,,A,,F,, B,,3 D, | E,F,G,E, F,E,D,B,, | E,F,G,E, F,E,D,B,, | E,C,F,F,, B,,4 :: %33
 [F,,F,]4 [B,,B,]3 z/ [B,,B,]/ | [A,,A,]>G,F,>E, D,2 B,,2 | F,4 G,2 B,,2 | C,4 D,2 [G,,G,]2 | %37
 [D,A,]4 G,2 A,2 | B,2 B,,2 E,4 | F,2 A,2 D,2 G,2 | C,2 F,2 B,,2 C,2 | F,,2 D,2 _E,2 F,2 | %42
 B,,2 B,2 G,2 A,2 | B,3 D, E,F,G,E, | F,E,D,B,, E,C,F,F,, | B,,D,E,F, G,D,E,F, | %46
 G,D,E,F, G,D,E,F, | G,F,E,D, C,2 [B,,,B,,]2 | [F,,F,]2 [F,,,F,,]2 !fermata![B,,,B,,]4 :| z/8 | %50
[M:3/4] B,4 A,2 | G,4 D,2 | E,4 B,,2 | F,4 B,,2 | B,4 G,2 | A,4 F,2 | G,4 B,,2 | C,4 F,,2 :: C6 | %59
 (DEFEDC) | (B,D^FD[I:staff -1]AG) |[I:staff +1] D,4 G,,2 | G,2 A,2 F,2 | B,3 D, E,2 | %64
 D,2 C,2 B,,2 | F,4 B,,2 :| z/8 |[M:2/2] B,2 A,2 B,2 F,2 | G,2 C,2 F,2 B,,2 | %69
 [E,,E,]6 [D,,D,]>[E,,E,] | [F,,F,]4 [B,,,B,,]4 | B,,2 B,4 A,2 | D2 =E2 [F,F]4 | %73
 [B,,,B,,]6 [A,,,A,,]>[B,,,B,,] | [C,,C,]4 [F,,,F,,]4 | F,2 z2 G,2 z2 | A,2 z2 B,2 z2 | %77
 [E,,E,]6 [D,,D,]>[E,,E,] | [F,,F,]4 [B,,,B,,]4 | F,2 z2 G,2 z2 | A,2 z2 B,2 z2 | %81
 [E,,E,]6 [D,,D,]>[E,,E,] | [F,,F,]4 B,,4 :: B,2 A,2 B,2 z2 | C2 =B,2 C2 z [E,,E,] | %85
 [F,,F,]2 z2 G,2 C,2 | G,2 G,,2 .C,.C,.C,.B,, | A,,2 z .F, .B,.B,.B,._A, | %88
 G,2 z .B,, .E,.E,.E,.D, | C,2 B,,2 F,2 B,,2 | F,2 B,,2 F,2 B,,2 | F,2 B,,2 F,2 z [D,,D,] | %92
 [E,,E,]3 [E,,E,] [F,,F,]2 [B,,,B,,]2 | [F,,F,]4 [B,,,B,,]3 D, | E,3 E, F,2 B,,2 | %95
 [F,,F,]4 !fermata![B,,,B,,]4 :| %96
V:7
 x8 | x8 | x8 | x8 | x8 | x8 | x8 | x8 | x8 | x8 | x8 | x8 | x8 | x8 | x8 |][M:4/4] x8 | x8 | x8 | %18
 x8 | x8 | x8 | x8 | x8 | x8 | x8 | x8 | x8 | x8 | x8 | x8 | x8 | x8 | x8 :: x8 | x8 | x8 | x8 | %37
 x8 | x8 | x8 | x8 | x6 A2 | x8 | x8 | x8 | x8 | x8 | x8 | x8 :| x/4 |[M:3/4] x6 | x6 | x6 | x6 | %54
 x6 | x6 | x6 | x6 :: x6 | x6 | x6 | x6 | x6 | x6 | x6 | AG F x3 :| x/4 |[M:2/2] x8 | x8 | x8 | %70
 E4 D4 | x8 | x8 | x8 | x8 | x8 | x8 | x8 | E4 D4 | x8 | x8 | x8 | E4 D4 :: x8 | x8 | x8 | x8 | %87
 x8 | x8 | x8 | x8 | x8 | x8 | x7 F | x8 | x8 :| %96
V:8
 x8 | x8 | x8 | x8 | x8 | x8 | x8 | x8 | x8 | x8 | x8 | x8 | x8 | x8 | x8 |][M:4/4] x8 | x8 | x8 | %18
 x8 | x8 | x8 | x8 | x8 | x8 | x8 | x8 | x8 | x8 | x8 | x8 | x8 | x8 | x8 :: x8 | x8 | x8 | x8 | %37
 x8 | x8 | x8 | x8 | x6 FE | x8 | x8 | x8 | x8 | x8 | x8 | x8 :| x/4 |[M:3/4] x6 | x6 | x6 | x6 | %54
 x6 | x6 | x6 | x6 :: x6 | x6 | x6 | x6 | x6 | x6 | x6 | x6 :| x/4 |[M:2/2] x8 | x8 | x8 | x8 | %71
 x8 | x8 | x8 | x8 | x8 | x8 | x8 | x8 | x8 | x8 | x8 | x8 :: x8 | x8 | x8 | x8 | x8 | x8 | x8 | %90
 x8 | x8 | x8 | x8 | x8 | x8 :| %96
V:9
 x8 | x8 | x8 | x8 | x8 | x8 | x8 | x8 | x8 | x8 | x8 | x8 | x8 | x8 | x8 |][M:4/4] x8 | x8 | x8 | %18
 x8 | x8 | x8 | x8 | x8 | x8 | x8 | x8 | x8 | x8 | x8 | x8 | x8 | x8 | x8 :: x8 | x8 | x8 | x8 | %37
 x8 | x8 | x8 | x8 | x8 | x8 | x8 | x8 | x8 | x8 | x8 | x8 :| x/4 |[M:3/4] x6 | x2 B,4 | x6 | x6 | %54
 x6 | x6 | x6 | x6 :: F,2 A,2 F,2 | B,4 ^F,2 | G,2 D,2 G,,2 | x6 | x6 | x6 | x6 | x6 :| x/4 | %67
[M:2/2] x8 | x8 | x8 | x8 | x8 | G,4 x4 | x8 | x8 | x8 | x8 | x8 | x8 | x8 | x8 | x8 | x4 B,,,4 :: %83
 x8 | x8 | x8 | x8 | x8 | x8 | x8 | x8 | x8 | x8 | x8 | x8 | x8 :| %96

